X: 15062
T: I cannot win at her for her big Belly
%R: jig
B: James Oswald "The Caledonian Pocket Companion" v.1 b.5 p.6 #2 (plus top 5 staves of p.7)
S: https://ia800501.us.archive.org/18/items/caledonianpocket01rugg/caledonianpocket01rugg_bw.pdf
Z: 2020 John Chambers <jc:trillian.mit.edu>
M: 6/8
L: 1/8
K: G
"_Brisk"D |\
G2D TE2D | ABA (c/d/e)E | G2D e>dc | TB2d e/f/gB |\
G2D TE2D | ABA c/d/eE | G2d d(B/c/d/B/) | GdG (B/c/d)D |
G2d d(B/c/d/B/) | AaA (c/d/e)E | G2d dBb | dBb dBg |\
ecc dBB | AaA (c/d/e)E | g2e d(B/c/d/B/) | G2g (f/g/a)b |\
g2e dBd |
A2a (f/g/a)b | g2e (c<B)z | (d<B)z (d<B)z |\
(ec)e (dB)g | AaA (c/d/e)c' | c'ba bag | G2g (f/g/a)b |\
c'ac' bgb | agf gdB |
caf gBG | AaA c/d/eE |\
G2D TE2D | G2B dgb | G2D TE2D | A2c eac' |\
G2D TE2D | g2G TB2G | c2a B2g | A2B (c/B/c/d/e/f/) |
g3 Te3 | G2A Bba | g3 Te3 | dBG Aba |\
(g2b) (f2a) | (e2g) dBd | ede gdB | AaA (c/d/e)f |\
g2D TE2D | G2B dgb |]


